X: 46
T: Stomp Dance Song (b)
C: Anon.
%%abc-version 2.0
%%abcx-abcm2ps-target-version 5.9.1 (29 Sep 2008)
%%abc-creator hum2abc beta
%%abcx-conversion-date 2020/08/10 20:56:09
%%abc-copyright Electronic Copyright 2000 David Huron
%%abc-edited-by David Huron
%%abcx-initial-encoding-date August 28, 2000
%%humdrum-veritas 963772050
%%humdrum-veritas-data 2296670849
%%linebreak <none>
%%barnumbers 0
L: 1/16
M: 2/4
Q: 1/4=66
K: B clef=bass
G,2 G, G, G,2 G,2[M:3/4] | 
G,2 G, G, B,2 G, F, G, G,3[M:2/4] | 
G,2 G, G, G,2 G,2[M:3/4] | 
B, G,2 G, B,2 G, F, G,2 G, z[M:2/4] | 
G,2 G, G, G,2 G, z[M:3/4] | 
G,2 G, G,2< B,2 G, B,2 B, z[M:2/4] | 
G,2 G, G, G,2 G, z[M:3/4] | 
G,2 G, G, B,2 G,2 G, G, z2[M:2/4] | 
G,2 G, G, G,2 G, z[M:3/4] | 
G, G,2 G, B,2 G, F, G, G,2 z[M:2/4] | 
G,2 G, G, G,2 G, z[M:3/4] | 
C2 C B, B,2 G, F, G, G, z2[M:2/4] | 
G,2 G, G, G,2 G, z[M:3/4] | 
G,2 G, G, B,2 G, F, G, G,2 z[M:2/4] | 
G,2 G, G, G,2 G,2[M:3/4] | 
G,2 G, G, B,2 G, F, G,2 G, z[M:2/4] | 
G,2 G, G, G,2 G,2[M:3/4] | 
G,2 G, G,2< B,2 G, B,2 B, z[M:2/4] | 
G,2 G, G, G,2 G, z[M:3/4] | 
G,2 G, G, B,2 G, F, G,2 G, z[M:2/4] | 
G,2 G, G, G,2 G, z[M:3/4] | 
B, G,2 G, B,2 G, F, G,2 G, z[M:2/4] | 
G,2 G, G, G,2 G, z[M:3/4] | 
B, G,2 G, B,2 G, F, G, G,2 z[M:2/4] | 
G,2 G, G, G,2 G, z/ G,/ | 
G,4G,2 z2 |]  


